flaticon/sewing/material-1.svg

<svg xmlns="http://www.w3.org/2000/svg" width="32" height="32" viewBox="0 0 24 24">
    <path d="M4.199219 14.398438L2.800781 14.398438 2.800781 13C2.800781 12.761719 2.640625 12.601562 2.398438 12.601562 2.160156 12.601562 2 12.761719 2 13L2 14.800781C2 15.039062 2.160156 15.199219 2.398438 15.199219L4.199219 15.199219C4.441406 15.199219 4.601562 15.039062 4.601562 14.800781 4.601562 14.558594 4.441406 14.398438 4.199219 14.398438zM2.398438 11.199219C2.640625 11.199219 2.800781 11 2.800781 10.800781L2.800781 6.800781C2.800781 6.558594 2.640625 6.398438 2.398438 6.398438 2.160156 6.398438 2 6.558594 2 6.800781L2 10.800781C2 11.039062 2.160156 11.199219 2.398438 11.199219zM4.199219 2.398438L2.398438 2.398438C2.160156 2.398438 2 2.558594 2 2.800781L2 4.601562C2 4.839844 2.160156 5 2.398438 5 2.640625 5 2.800781 4.839844 2.800781 4.601562L2.800781 3.199219 4.199219 3.199219C4.441406 3.199219 4.601562 3.039062 4.601562 2.800781 4.601562 2.558594 4.441406 2.398438 4.199219 2.398438zM10.398438 2.398438L6.398438 2.398438C6.160156 2.398438 6 2.558594 6 2.800781 6 3.039062 6.160156 3.199219 6.398438 3.199219L10.398438 3.199219C10.601562 3.199219 10.800781 3.039062 10.800781 2.800781 10.800781 2.558594 10.640625 2.398438 10.398438 2.398438zM14.398438 2.398438L12.601562 2.398438C12.359375 2.398438 12.199219 2.558594 12.199219 2.800781 12.199219 3.039062 12.359375 3.199219 12.601562 3.199219L14 3.199219 14 4.601562C14 4.839844 14.160156 5 14.398438 5 14.640625 5 14.800781 4.839844 14.800781 4.601562L14.800781 2.800781C14.800781 2.558594 14.640625 2.398438 14.398438 2.398438zM14.398438 6.398438C14.160156 6.398438 14 6.558594 14 6.800781L14 10.800781C14 11.039062 14.160156 11.199219 14.398438 11.199219 14.640625 11.199219 14.800781 11 14.800781 10.800781L14.800781 6.800781C14.800781 6.558594 14.640625 6.398438 14.398438 6.398438zM14.398438 12.601562C14.160156 12.601562 14 12.761719 14 13L14 14.398438 12.601562 14.398438C12.359375 14.398438 12.199219 14.558594 12.199219 14.800781 12.199219 15.039062 12.359375 15.199219 12.601562 15.199219L14.398438 15.199219C14.640625 15.199219 14.800781 15.039062 14.800781 14.800781L14.800781 13C14.800781 12.761719 14.640625 12.601562 14.398438 12.601562zM10.398438 14.398438L6.398438 14.398438C6.160156 14.398438 6 14.558594 6 14.800781 6 15.039062 6.160156 15.199219 6.398438 15.199219L10.398438 15.199219C10.601562 15.199219 10.800781 15.039062 10.800781 14.800781 10.800781 14.558594 10.640625 14.398438 10.398438 14.398438zM19.199219 6.800781C18.960938 6.800781 18.800781 6.960938 18.800781 7.199219L18.800781 9C18.800781 9.238281 18.960938 9.398438 19.199219 9.398438 19.441406 9.398438 19.601562 9.238281 19.601562 9L19.601562 7.199219C19.601562 6.960938 19.441406 6.800781 19.199219 6.800781zM19.199219 10.800781C18.960938 10.800781 18.800781 10.960938 18.800781 11.199219L18.800781 15.199219C18.800781 15.441406 18.960938 15.601562 19.199219 15.601562 19.441406 15.601562 19.601562 15.398438 19.601562 15.199219L19.601562 11.199219C19.601562 10.960938 19.441406 10.800781 19.199219 10.800781zM19.199219 17C18.960938 17 18.800781 17.160156 18.800781 17.398438L18.800781 18.800781 17.398438 18.800781C17.160156 18.800781 17 18.960938 17 19.199219 17 19.441406 17.160156 19.601562 17.398438 19.601562L19.199219 19.601562C19.441406 19.601562 19.601562 19.441406 19.601562 19.199219L19.601562 17.398438C19.601562 17.160156 19.441406 17 19.199219 17zM15.199219 18.800781L11.199219 18.800781C10.960938 18.800781 10.800781 18.960938 10.800781 19.199219 10.800781 19.441406 10.960938 19.601562 11.199219 19.601562L15.199219 19.601562C15.398438 19.601562 15.601562 19.441406 15.601562 19.199219 15.601562 18.960938 15.441406 18.800781 15.199219 18.800781zM9 18.800781L7.199219 18.800781C6.960938 18.800781 6.800781 18.960938 6.800781 19.199219 6.800781 19.441406 6.960938 19.601562 7.199219 19.601562L9 19.601562C9.238281 19.601562 9.398438 19.441406 9.398438 19.199219 9.398438 18.960938 9.238281 18.800781 9 18.800781zM9 18.800781"/>
    <path d="M 23.601562 8.398438 C 23.839844 8.398438 24 8.238281 24 8 C 24 7.761719 23.839844 7.601562 23.601562 7.601562 L 22 7.601562 L 22 6.398438 L 23.601562 6.398438 C 23.839844 6.398438 24 6.238281 24 6 C 24 5.761719 23.839844 5.601562 23.601562 5.601562 L 21.984375 5.601562 C 21.882812 4.929688 21.292969 4.398438 20.601562 4.398438 L 16.800781 4.398438 L 16.800781 1.800781 C 16.800781 1.039062 16.160156 0.398438 15.398438 0.398438 L 1.398438 0.398438 C 0.640625 0.398438 0 1.039062 0 1.800781 L 0 15.800781 C 0 16.558594 0.640625 17.199219 1.398438 17.199219 L 4.800781 17.199219 L 4.800781 20.199219 C 4.800781 20.890625 5.332031 21.484375 6 21.585938 L 6 23.199219 C 6 23.441406 6.160156 23.601562 6.398438 23.601562 C 6.640625 23.601562 6.800781 23.441406 6.800781 23.199219 L 6.800781 21.601562 L 8 21.601562 L 8 23.199219 C 8 23.441406 8.160156 23.601562 8.398438 23.601562 C 8.640625 23.601562 8.800781 23.441406 8.800781 23.199219 L 8.800781 21.601562 L 10 21.601562 L 10 23.199219 C 10 23.441406 10.160156 23.601562 10.398438 23.601562 C 10.640625 23.601562 10.800781 23.441406 10.800781 23.199219 L 10.800781 21.601562 L 12 21.601562 L 12 23.199219 C 12 23.441406 12.160156 23.601562 12.398438 23.601562 C 12.640625 23.601562 12.800781 23.441406 12.800781 23.199219 L 12.800781 21.601562 L 14 21.601562 L 14 23.199219 C 14 23.441406 14.160156 23.601562 14.398438 23.601562 C 14.640625 23.601562 14.800781 23.441406 14.800781 23.199219 L 14.800781 21.601562 L 16 21.601562 L 16 23.199219 C 16 23.441406 16.160156 23.601562 16.398438 23.601562 C 16.640625 23.601562 16.800781 23.441406 16.800781 23.199219 L 16.800781 21.601562 L 18 21.601562 L 18 23.199219 C 18 23.441406 18.160156 23.601562 18.398438 23.601562 C 18.640625 23.601562 18.800781 23.441406 18.800781 23.199219 L 18.800781 21.601562 L 20 21.601562 L 20 23.199219 C 20 23.441406 20.160156 23.601562 20.398438 23.601562 C 20.640625 23.601562 20.800781 23.441406 20.800781 23.199219 L 20.800781 21.546875 C 21.363281 21.402344 21.878906 20.964844 21.980469 20.398438 L 23.601562 20.398438 C 23.839844 20.398438 24 20.238281 24 20 C 24 19.761719 23.839844 19.601562 23.601562 19.601562 L 22 19.601562 L 22 18.398438 L 23.601562 18.398438 C 23.839844 18.398438 24 18.238281 24 18 C 24 17.761719 23.839844 17.601562 23.601562 17.601562 L 22 17.601562 L 22 16.398438 L 23.601562 16.398438 C 23.839844 16.398438 24 16.238281 24 16 C 24 15.761719 23.839844 15.601562 23.601562 15.601562 L 22 15.601562 L 22 14.398438 L 23.601562 14.398438 C 23.839844 14.398438 24 14.238281 24 14 C 24 13.761719 23.839844 13.601562 23.601562 13.601562 L 22 13.601562 L 22 12.398438 L 23.601562 12.398438 C 23.839844 12.398438 24 12.238281 24 12 C 24 11.761719 23.839844 11.601562 23.601562 11.601562 L 22 11.601562 L 22 10.398438 L 23.601562 10.398438 C 23.839844 10.398438 24 10.238281 24 10 C 24 9.761719 23.839844 9.601562 23.601562 9.601562 L 22 9.601562 L 22 8.398438 Z M 1.398438 16.398438 C 1.078125 16.398438 0.800781 16.121094 0.800781 15.800781 L 0.800781 1.800781 C 0.800781 1.480469 1.078125 1.199219 1.398438 1.199219 L 15.398438 1.199219 C 15.71875 1.199219 16 1.480469 16 1.800781 L 16 15.800781 C 16 16.121094 15.71875 16.398438 15.398438 16.398438 Z M 21.199219 20.199219 C 21.199219 20.480469 20.800781 20.800781 20.398438 20.800781 L 6.199219 20.800781 C 5.878906 20.800781 5.601562 20.519531 5.601562 20.199219 L 5.601562 17.199219 L 15.398438 17.199219 C 16.160156 17.199219 16.800781 16.558594 16.800781 15.800781 L 16.800781 5.199219 L 20.601562 5.199219 C 20.921875 5.199219 21.199219 5.480469 21.199219 5.800781 Z M 21.199219 20.199219"/>
</svg>

<svg xmlns="http://www.w3.org/2000/svg" width="32" height="32" viewBox="0 0 24 24">
    <path d="M4.2 14.398H2.8V13c0-.238-.16-.398-.402-.398-.238 0-.398.16-.398.398v1.8c0 .24.16.4.398.4H4.2c.242 0 .403-.16.403-.4 0-.241-.16-.402-.403-.402zm0 0M2.398 11.2a.4.4 0 0 0 .403-.4v-4c0-.241-.16-.402-.403-.402-.238 0-.398.16-.398.403v4c0 .238.16.398.398.398zm0 0M4.2 2.398H2.397c-.238 0-.398.16-.398.403v1.8c0 .239.16.399.398.399.243 0 .403-.16.403-.398V3.199h1.398c.242 0 .403-.16.403-.398 0-.242-.16-.403-.403-.403zm0 0M10.398 2.398h-4c-.238 0-.398.16-.398.403 0 .238.16.398.398.398h4a.4.4 0 0 0 .403-.398c0-.242-.16-.403-.403-.403zm0 0M14.398 2.398h-1.796c-.243 0-.403.16-.403.403 0 .238.16.398.403.398H14v1.403c0 .238.16.398.398.398.243 0 .403-.16.403-.398V2.8c0-.242-.16-.403-.403-.403zm0 0M14.398 6.398c-.238 0-.398.16-.398.403v4c0 .238.16.398.398.398a.4.4 0 0 0 .403-.398v-4c0-.242-.16-.403-.403-.403zm0 0M14.398 12.602c-.238 0-.398.16-.398.398v1.398h-1.398c-.243 0-.403.16-.403.403 0 .238.16.398.403.398h1.796c.243 0 .403-.16.403-.398V13c0-.238-.16-.398-.403-.398zm0 0M10.398 14.398h-4c-.238 0-.398.16-.398.403 0 .238.16.398.398.398h4a.4.4 0 0 0 .403-.398c0-.242-.16-.403-.403-.403zm0 0M19.2 6.8c-.24 0-.4.16-.4.4V9c0 .238.16.398.4.398.241 0 .402-.16.402-.398V7.2c0-.24-.16-.4-.403-.4zm0 0M19.2 10.8c-.24 0-.4.16-.4.4v4c0 .241.16.402.4.402a.404.404 0 0 0 .402-.403v-4c0-.238-.16-.398-.403-.398zm0 0M19.2 17c-.24 0-.4.16-.4.398v1.403h-1.402c-.238 0-.398.16-.398.398 0 .242.16.403.398.403H19.2c.242 0 .403-.16.403-.403v-1.8c0-.239-.16-.399-.403-.399zm0 0M15.2 18.8h-4c-.24 0-.4.16-.4.4 0 .241.16.402.4.402h4c.198 0 .402-.16.402-.403 0-.238-.16-.398-.403-.398zm0 0M9 18.8H7.2c-.24 0-.4.16-.4.4 0 .241.16.402.4.402H9c.238 0 .398-.16.398-.403 0-.238-.16-.398-.398-.398zm0 0"/>
    <path d="M23.602 8.398c.238 0 .398-.16.398-.398 0-.238-.16-.398-.398-.398H22V6.398h1.602c.238 0 .398-.16.398-.398 0-.238-.16-.398-.398-.398h-1.618c-.101-.672-.691-1.204-1.382-1.204H16.8V1.801c0-.762-.64-1.403-1.403-1.403h-14C.641.398 0 1.04 0 1.801v14c0 .758.64 1.398 1.398 1.398h3.403v3c0 .692.531 1.285 1.199 1.387v1.613c0 .242.16.403.398.403.243 0 .403-.16.403-.403v-1.597H8v1.597c0 .242.16.403.398.403.243 0 .403-.16.403-.403v-1.597H10v1.597c0 .242.16.403.398.403.243 0 .403-.16.403-.403v-1.597H12v1.597c0 .242.16.403.398.403.243 0 .403-.16.403-.403v-1.597H14v1.597c0 .242.16.403.398.403.243 0 .403-.16.403-.403v-1.597H16v1.597c0 .242.16.403.398.403.243 0 .403-.16.403-.403v-1.597H18v1.597c0 .242.16.403.398.403.243 0 .403-.16.403-.403v-1.597H20v1.597c0 .242.16.403.398.403.243 0 .403-.16.403-.403v-1.652c.562-.145 1.078-.582 1.18-1.149h1.62c.239 0 .399-.16.399-.398 0-.238-.16-.398-.398-.398H22v-1.204h1.602c.238 0 .398-.16.398-.398 0-.238-.16-.398-.398-.398H22v-1.204h1.602c.238 0 .398-.16.398-.398 0-.238-.16-.398-.398-.398H22v-1.204h1.602c.238 0 .398-.16.398-.398 0-.238-.16-.398-.398-.398H22v-1.204h1.602c.238 0 .398-.16.398-.398 0-.238-.16-.398-.398-.398H22v-1.204h1.602c.238 0 .398-.16.398-.398 0-.238-.16-.398-.398-.398H22V8.398zm-22.204 8a.61.61 0 0 1-.597-.597v-14c0-.32.277-.602.597-.602h14c.32 0 .602.281.602.602v14c0 .32-.281.597-.602.597zM21.2 20.2c0 .281-.398.602-.8.602h-14.2a.614.614 0 0 1-.597-.602v-3h9.796c.762 0 1.403-.64 1.403-1.398V5.199h3.8c.32 0 .598.281.598.602zm0 0"/>
</svg>
